X:12
T:Hunting the Squirrel
T:Dance: Weobley Stick Dance
R:single jig
H:A Red Stags Morris dance
H:This version from John Kirkpatrick's Opus Pocus;
H:not sure if same as Stags version
C:William Preece.
M:6/8
L:1/8
K:G
G2 B d2 d | e3 d3 | B3 G3 | A3 D3 | G2 B d2 d | e3 d2 c | B2 G A2 F | G3 G3 :|
Bcd e3 | Bcd e3 | Bcd e2 f | g3 e3 |d2 B G2 B  |d3 B2 A | G2 B A2 F | G3 G3 :|
